packages/ffe-icons/icons/filled/md/hourglass_empty.svg

<svg xmlns="http://www.w3.org/2000/svg" height="24" viewBox="0 -960 960 960" width="24"><path d="M316.154-160h327.692v-120q0-68.308-47.769-116.846Q548.308-445.385 480-445.385q-68.308 0-116.077 48.582Q316.154-348.221 316.154-280v120ZM480-514.615q68.308 0 116.077-48.582Q643.846-611.779 643.846-680v-120H316.154v120q0 68.308 47.769 116.846Q411.692-514.615 480-514.615ZM210.001-100.001q-12.75 0-21.375-8.629t-8.625-21.384q0-12.756 8.625-21.371Q197.251-160 210.001-160h46.154v-120q0-67.539 36.962-122.962T391.08-480q-61.001-21.999-97.963-77.23-36.962-55.231-36.962-122.77v-120h-46.154q-12.75 0-21.375-8.629-8.625-8.628-8.625-21.384 0-12.755 8.625-21.37 8.625-8.616 21.375-8.616h539.998q12.75 0 21.375 8.629t8.625 21.384q0 12.756-8.625 21.371Q762.749-800 749.999-800h-46.154v120q0 67.539-36.962 122.77-36.962 55.231-97.963 77.23 61.001 21.615 97.963 77.038Q703.845-347.539 703.845-280v120h46.154q12.75 0 21.375 8.629 8.625 8.628 8.625 21.384 0 12.755-8.625 21.37-8.625 8.616-21.375 8.616H210.001Z"/></svg>

<svg xmlns="http://www.w3.org/2000/svg" height="24" viewBox="0 -960 960 960" width="24"><path d="M316.15-160h327.7v-120q0-68.31-47.77-116.85-47.77-48.54-116.08-48.54T363.92-396.8q-47.77 48.58-47.77 116.8v120ZM480-514.61q68.31 0 116.08-48.59 47.77-48.58 47.77-116.8v-120h-327.7v120q0 68.31 47.77 116.85 47.77 48.54 116.08 48.54ZM210-100q-12.75 0-21.37-8.63-8.63-8.63-8.63-21.38 0-12.76 8.63-21.37Q197.25-160 210-160h46.16v-120q0-67.54 36.96-122.96 36.96-55.43 97.96-77.04-61-22-97.96-77.23-36.96-55.23-36.96-122.77v-120H210q-12.75 0-21.37-8.63-8.63-8.63-8.63-21.38 0-12.76 8.63-21.37Q197.25-860 210-860h540q12.75 0 21.37 8.63 8.63 8.63 8.63 21.38 0 12.76-8.63 21.37Q762.75-800 750-800h-46.16v120q0 67.54-36.96 122.77Q629.92-502 568.92-480q61 21.61 97.96 77.04 36.96 55.42 36.96 122.96v120H750q12.75 0 21.37 8.63 8.63 8.63 8.63 21.38 0 12.76-8.63 21.37Q762.75-100 750-100H210Z"/></svg>
